X: 34892
T: Robinson County
R: barndance
M: 4/4
K: Dmajor
|:F>G|A2 f2 f>gf>e|d>cB>A B>cd>B|A2 f2- f>gf>e|[d2f2] [d4f4] F>G|
A2 f2- f>gf>e|d>cB>A B>cd>B|A2 F2 E2 E2|D2 D4:|
(3efg|a2 f2 f>f b2|a<f-ff f2 b2|a2 f2 f>e d2|e6 f>g|
a2 f2 f>f b2|a<f-ff f>e d2|e2 d2 (3fgf e2|d6 (3efg|
a2 f2 f2 b2|a<f-ff f2 (3efg|a2 f2 f>e d2|e6 f>g|
a2 f2 f>f b2|a<f-ff f>e d2|e2 e>e f>d e2|d6||

